X:1
T:Bourre d'Auvergne
Z:Ren Quiniou (http://www.irisa.fr/prive/quiniou)
R:
C:Trad.
S:
A:Auvergne
M:3/4
L:1/8
K:Am
Q:1/4=250
A2 | e2 e2 d2 | e4 c2 | Bd c2 B2 | c2 A2 A2 | \
e2 e2 d2 | e4 c2 | Bd c2 B2 | A4 :|
A2 | A2 G2 A2 | E4 c2 | Bd c2 B2 | c2 A2 A2 | \
A2 G2 A2 | E4 A2 | GA B2 G2| A4 :|
